tram.svg

<?xml version="1.0" encoding="UTF-8"?>
<svg width="68px" height="114px" viewBox="0 0 68 114" version="1.1" xmlns="http://www.w3.org/2000/svg" xmlns:xlink="http://www.w3.org/1999/xlink">
    <title>Group</title>
    <g id="tram" stroke="none" stroke-width="1" fill="none" fill-rule="evenodd">
        <g id="Group" transform="translate(0.000000, 2.353045)">
            <polyline id="Path-2" stroke="#000000" stroke-width="4" points="33.5 10.1469548 25.5 16.5755262 33.5 25.1469548"></polyline>
            <rect id="Rectangle" stroke="#000000" stroke-width="8" x="8" y="27.6469548" width="52" height="68" rx="14"></rect>
            <rect id="Rectangle" stroke="#000000" fill="#000000" x="14.5" y="96.1469548" width="10" height="14" rx="4.5"></rect>
            <rect id="Rectangle" stroke="#000000" fill="#000000" x="43.5" y="96.1469548" width="10" height="14" rx="4.5"></rect>
            <rect id="Rectangle" stroke="#000000" fill="#000000" x="0.5" y="47.1469548" width="4" height="14" rx="2"></rect>
            <rect id="Rectangle" stroke="#000000" fill="#000000" x="63.5" y="47.1469548" width="4" height="14" rx="2"></rect>
            <line x1="15.5" y1="10.1469548" x2="51.5" y2="10.1469548" id="Line-2" stroke="#000000" stroke-width="3" stroke-linecap="square"></line>
            <path d="M13.5,16.1469548 C13.1666667,5.38231826 19.8333333,0 33.5,0 C47.1666667,0 54,5.38231826 54,16.1469548" id="Path" stroke="#000000" stroke-width="4"></path>
            <line x1="53.5" y1="46.1469548" x2="42.5" y2="97.1469548" id="Line-4" stroke="#000000" stroke-width="5" stroke-linecap="square"></line>
            <line x1="25.5" y1="46.1469548" x2="14.5" y2="97.1469548" id="Line-4" stroke="#000000" stroke-width="5" stroke-linecap="square" transform="translate(20.000000, 71.646955) scale(-1, 1) translate(-20.000000, -71.646955) "></line>
            <path d="M47.8073395,85.5462436 C48.4217746,85.3678592 49.104261,85.4238739 49.7091618,85.7565694 C50.1245611,85.985039 50.4664351,86.326913 50.6949047,86.7423123 L54.9298199,94.4421579 C55.2625153,95.0470588 55.31853,95.7295452 55.1401457,96.3439803 C54.9617613,96.9584154 54.5489778,97.5047991 53.944077,97.8374946 C53.5749645,98.0405064 53.1605375,98.1469548 52.7392801,98.1469548 L44.2694499,98.1469548 C43.5790939,98.1469548 42.9540939,97.8671328 42.5016829,97.4147217 C42.0492719,96.9623107 41.7694499,96.3373107 41.7694499,95.6469548 C41.7694499,95.2256974 41.8758982,94.8112704 42.0789101,94.4421579 L46.3138252,86.7423123 C46.6465207,86.1374114 47.1929044,85.7246279 47.8073395,85.5462436 Z" id="Triangle" stroke="#000000" stroke-width="3" fill="#FFFFFF" transform="translate(48.504365, 89.646955) scale(1, -1) rotate(-40.000000) translate(-48.504365, -89.646955) "></path>
            <path d="M18.8053702,85.5462436 C19.4198053,85.3678592 20.1022917,85.4238739 20.7071925,85.7565694 C21.1225918,85.985039 21.4644658,86.326913 21.6929354,86.7423123 L25.9278506,94.4421579 C26.260546,95.0470588 26.3165607,95.7295452 26.1381764,96.3439803 C25.959792,96.9584154 25.5470085,97.5047991 24.9421077,97.8374946 C24.5729952,98.0405064 24.1585682,98.1469548 23.7373108,98.1469548 L15.2674806,98.1469548 C14.5771246,98.1469548 13.9521246,97.8671328 13.4997136,97.4147217 C13.0473026,96.9623107 12.7674806,96.3373107 12.7674806,95.6469548 C12.7674806,95.2256974 12.8739289,94.8112704 13.0769408,94.4421579 L17.3118559,86.7423123 C17.6445514,86.1374114 18.1909351,85.7246279 18.8053702,85.5462436 Z" id="Triangle" stroke="#000000" stroke-width="3" fill="#FFFFFF" transform="translate(19.502396, 89.646955) scale(1, -1) rotate(41.000000) translate(-19.502396, -89.646955) "></path>
            <rect id="Rectangle" fill="#000000" x="10" y="30.6469548" width="48" height="14"></rect>
            <rect id="Rectangle" fill="#FFFFFF" x="14" y="31.1469548" width="40" height="7.5" rx="3"></rect>
        </g>
    </g>
</svg>

<?xml version="1.0" encoding="UTF-8" standalone="no"?>
<svg
   width="68px"
   height="112px"
   viewBox="0 0 68 112"
   xmlns="http://www.w3.org/2000/svg">
  <g
     id="tram"
     stroke="none"
     stroke-width="1"
     fill="none"
     fill-rule="evenodd"
     transform="translate(0,1.5)">
    <rect
       stroke="#000000"
       stroke-width="8"
       x="8"
       y="27.6"
       width="52"
       height="68"
       rx="14"
       id="rect1" />
    <rect
       stroke="#000000"
       fill="#000000"
       x="14.5"
       y="96"
       width="10"
       height="14"
       rx="4.5"
       id="rect2" />
    <rect
       stroke="#000000"
       fill="#000000"
       x="43.5"
       y="96"
       width="10"
       height="14"
       rx="4.5"
       id="rect3" />
    <rect
       stroke="#000000"
       fill="#000000"
       x="0.5"
       y="47"
       width="4"
       height="14"
       rx="2"
       id="rect4" />
    <rect
       stroke="#000000"
       fill="#000000"
       x="63.5"
       y="47"
       width="4"
       height="14"
       rx="2"
       id="rect5" />
    <line
       x1="15.5"
       y1="10.5"
       x2="51.5"
       y2="10.5"
       id="antenna"
       stroke="#000000"
       stroke-width="3"
       stroke-linecap="square" />
    <path
       d="M 13.5,16.7 C 13.2,5.9 20,0.5 33.5,0.5 47.2,0.5 54,5.9 54,16.7"
       id="antenna-top"
       stroke="#000000"
       stroke-width="4" />
    <path
       d="m 36.3,25.7 c -4,0 -6,-2.4 -6,-7.5 0,-5.1 2,-7.7 6,-7.7"
       id="antenna-up"
       stroke="#000000"
       stroke-width="1.45"
       style="stroke-width:3;stroke-dasharray:none" />
    <line
       x1="14.5"
       y1="46.200001"
       x2="25.5"
       y2="97.199997"
       id="left"
       stroke="#000000"
       stroke-width="5"
       stroke-linecap="square" />
    <line
       x1="53.5"
       y1="46.200001"
       x2="42.5"
       y2="97.199997"
       id="right"
       stroke="#000000"
       stroke-width="5"
       stroke-linecap="square" />
    <path
       d="m 47.8,85.5 c 0.6,-0.1 1.3,-0.1 1.9,0.3 0.4,0.2 0.766435,0.526913 0.994905,0.942312 l 4.234915,7.699846 c 0.332695,0.604901 0.38871,1.287387 0.210326,1.901822 -0.178385,0.614435 -0.591168,1.160819 -1.196069,1.493515 -0.369113,0.203011 -0.78354,0.30946 -1.204797,0.30946 h -8.46983 c -0.690356,0 -1.315356,-0.279822 -1.767767,-0.732233 -0.452411,-0.452411 -0.732233,-1.077411 -0.732233,-1.767767 0,-0.421258 0.106448,-0.835685 0.30946,-1.204797 l 4.234915,-7.699846 c 0.332696,-0.604901 0.879079,-1.017684 1.493514,-1.196068 z"
       stroke="#000000"
       stroke-width="3"
       fill="#ffffff"
       transform="matrix(0.76604444,0.64278761,0.64278761,-0.76604444,-46.276086,129.49555)"
       id="path5" />
    <path
       d="m 18.80537,85.546244 c 0.614435,-0.178385 1.296922,-0.12237 1.901823,0.210325 0.415399,0.22847 0.757273,0.570344 0.985742,0.985743 l 4.234916,7.699846 c 0.332695,0.604901 0.38871,1.287387 0.210325,1.901822 -0.178384,0.614435 -0.591168,1.160819 -1.196068,1.493515 -0.369113,0.203011 -0.78354,0.30946 -1.204797,0.30946 h -8.46983 c -0.690356,0 -1.315356,-0.279822 -1.767767,-0.732233 -0.452411,-0.452411 -0.732233,-1.077411 -0.732233,-1.767767 0,-0.421258 0.106448,-0.835685 0.30946,-1.204797 l 4.234915,-7.699846 c 0.332695,-0.604901 0.879079,-1.017684 1.493514,-1.196068 z"
       id="path4"
       stroke="#000000"
       stroke-width="3"
       fill="#ffffff"
       transform="matrix(0.75470958,-0.65605903,-0.65605903,-0.75470958,63.597445,172.45214)" />
    <rect
       id="rect6"
       fill="#000000"
       x="10"
       y="30.646955"
       width="48"
       height="14" />
    <rect
       id="rect7"
       fill="#ffffff"
       x="14"
       y="31.146955"
       width="40"
       height="7.5"
       rx="3" />
  </g>
</svg>
